;FilamentType:PLA
;MachineType:MP Cadet
;Extruder0Temperature:200
;BedTemperature:40
;InfillDensity:10
;FLAVOR:Marlin
;TIME:13742
;FilamentUsed: 11831.4
;Layer height: 0.2
;MINX:1.199
;MINY:2.199
;MINZ:0.36
;MAXX:92.8
;MAXY:105.8
;MAXZ:31.07
;Generated with Cura_SteamEngine 4.3.0
M82 ;absolute extrusion mode
;(**** start.gcode for Cadet****)
M104 S150
G28 Z
G28 X Y; Home extruder
G1 X55 Y55 F1000
G1 Z10 F200
G29
G1 Z15 F100
M107 ; Turn off fan
G90 ; Absolute positioning
M82 ; Extruder in absolute mode
M109 S215
G92 E0 ; Reset extruder position
G1 X90 Y6 Z0.27 F2000
G1 X20 Y6 Z0.27 E15 F1000 
G92 E0 ; Reset extruder position

M203 Z5
G92 E0
G92 E0
G1 F2100 E-3
;LAYER_COUNT:149
;LAYER:-6
M107
G0 F7200 X91.325 Y5.795 Z0.36
;TYPE:SUPPORT-INTERFACE
G1 F2100 E0
G1 F1200 X91.455 Y5.999 E0.02896
G1 X91.707 Y6.437 E0.08947
G1 X91.826 Y6.671 E0.1209
G1 X92.036 Y7.141 E0.18254
G1 X92.117 Y7.347 E0.20904
G1 X92.281 Y7.841 E0.27137
G1 X92.351 Y8.094 E0.3028
G1 X92.463 Y8.59 E0.36369
G1 X92.502 Y8.812 E0.39067
G1 X92.568 Y9.361 E0.45688
G1 X92.584 Y9.556 E0.48031
G1 X92.6 Y10 E0.53351
G1 X92.596 Y50.052 E5.32919
G1 X92.566 Y50.656 E5.4016
G1 X92.545 Y50.864 E5.42663
G1 X92.463 Y51.408 E5.49251
G1 X92.424 Y51.603 E5.51632
G1 X92.286 Y52.143 E5.58305
G1 X92.224 Y52.343 E5.60813
G1 X92.038 Y52.851 E5.6729
G1 X91.946 Y53.071 E5.70145
G1 X91.716 Y53.546 E5.76464
G1 X91.614 Y53.732 E5.79004
G1 X91.334 Y54.189 E5.85422
G1 X91.198 Y54.389 E5.88318
G1 X90.888 Y54.797 E5.94453
G1 X90.727 Y54.986 E5.97426
G1 X90.37 Y55.369 E6.03695
G1 X90.209 Y55.527 E6.06396
G1 X89.798 Y55.887 E6.12938
G1 X89.64 Y56.013 E6.15358
G1 X89.186 Y56.337 E6.22036
G1 X89.076 Y56.407 E6.23597
G1 X88.536 Y56.803 E6.31615
G1 X88.041 Y57.273 E6.39789
G1 X87.609 Y57.803 E6.47976
G1 X87.247 Y58.382 E6.56152
G1 X86.962 Y59.002 E6.64322
G1 X86.757 Y59.653 E6.72494
G1 X86.635 Y60.324 E6.8066
G1 X86.6 Y60.936 E6.88
G1 X86.596 Y98.052 E11.32414
G1 X86.566 Y98.656 E11.39655
G1 X86.545 Y98.864 E11.42158
G1 X86.463 Y99.408 E11.48746
G1 X86.424 Y99.603 E11.51127
G1 X86.287 Y100.14 E11.57763
G1 X86.224 Y100.343 E11.60308
G1 X86.039 Y100.848 E11.66747
G1 X85.943 Y101.076 E11.69709
G1 X85.717 Y101.545 E11.75943
G1 X85.614 Y101.732 E11.78499
G1 X85.334 Y102.189 E11.84917
G1 X85.198 Y102.389 E11.87813
G1 X84.888 Y102.797 E11.93948
G1 X84.727 Y102.986 E11.96921
G1 X84.372 Y103.367 E12.03156
G1 X84.209 Y103.527 E12.05891
G1 X83.803 Y103.883 E12.12356
G1 X83.637 Y104.016 E12.14903
G1 X83.206 Y104.324 E12.21246
G1 X83.001 Y104.455 E12.24159
G1 X82.558 Y104.71 E12.3028
G1 X82.335 Y104.823 E12.33273
G1 X81.859 Y105.036 E12.39517
G1 X81.646 Y105.119 E12.42254
G1 X81.154 Y105.282 E12.4846
G1 X80.906 Y105.351 E12.51542
G1 X80.4 Y105.465 E12.57753
G1 X80.179 Y105.503 E12.60438
G1 X79.639 Y105.568 E12.6695
G1 X79.434 Y105.584 E12.69412
G1 X78.966 Y105.6 E12.75019
G1 X9.089 Y105.6 E21.11702
G1 X8.948 Y105.596 E21.13391
G1 X8.344 Y105.566 E21.20632
G1 X8.135 Y105.545 E21.23147
G1 X7.592 Y105.463 E21.29722
G1 X7.397 Y105.424 E21.32103
G1 X6.857 Y105.286 E21.38777
G1 X6.655 Y105.223 E21.41311
G1 X6.149 Y105.038 E21.47762
G1 X5.929 Y104.946 E21.50617
G1 X5.454 Y104.716 E21.56936
G1 X5.265 Y104.612 E21.59519
G1 X4.808 Y104.332 E21.65936
G1 X4.611 Y104.198 E21.68789
G1 X4.202 Y103.887 E21.74941
G1 X4.014 Y103.727 E21.77897
G1 X3.628 Y103.367 E21.84217
G1 X3.473 Y103.209 E21.86867
G1 X3.113 Y102.798 E21.93409
G1 X2.984 Y102.637 E21.9588
G1 X2.672 Y102.2 E22.02309
G1 X2.543 Y101.998 E22.05179
G1 X2.288 Y101.553 E22.1132
G1 X2.174 Y101.329 E22.14329
G1 X1.96 Y100.851 E22.206
G1 X1.881 Y100.646 E22.23231
G1 X1.718 Y100.154 E22.29436
G1 X1.649 Y99.906 E22.32519
G1 X1.535 Y99.4 E22.38729
G1 X1.497 Y99.179 E22.41414
G1 X1.432 Y98.638 E22.47939
G1 X1.415 Y98.426 E22.50485
G1 X1.4 Y98 E22.55589
G1 X1.404 Y57.948 E27.35158
G1 X1.434 Y57.341 E27.42435
G1 X1.455 Y57.136 E27.44902
G1 X1.537 Y56.592 E27.51489
G1 X1.576 Y56.397 E27.5387
G1 X1.715 Y55.853 E27.60593
G1 X1.776 Y55.657 E27.63051
G1 X1.962 Y55.149 E27.69529
G1 X2.054 Y54.929 E27.72384
G1 X2.287 Y54.447 E27.78794
G1 X2.386 Y54.268 E27.81243
G1 X2.666 Y53.811 E27.87661
G1 X2.802 Y53.611 E27.90557
G1 X3.112 Y53.203 E27.96692
G1 X3.273 Y53.014 E27.99665
G1 X3.633 Y52.628 E28.05985
G1 X3.791 Y52.473 E28.08635
G1 X4.202 Y52.113 E28.15177
G1 X4.36 Y51.987 E28.17597
G1 X4.814 Y51.663 E28.24275
G1 X4.924 Y51.593 E28.25836
G1 X5.464 Y51.197 E28.33854
G1 X5.959 Y50.727 E28.42027
G1 X6.391 Y50.197 E28.50215
G1 X6.753 Y49.618 E28.58391
G1 X7.038 Y48.998 E28.66561
G1 X7.243 Y48.347 E28.74733
G1 X7.365 Y47.676 E28.82899
G1 X7.4 Y47.064 E28.90239
G1 X7.404 Y9.948 E33.34653
G1 X7.434 Y9.341 E33.4193
G1 X7.455 Y9.136 E33.44398
G1 X7.537 Y8.592 E33.50985
G1 X7.576 Y8.397 E33.53366
G1 X7.715 Y7.853 E33.60089
G1 X7.776 Y7.657 E33.62547
G1 X7.962 Y7.149 E33.69024
G1 X8.054 Y6.929 E33.71879
G1 X8.287 Y6.447 E33.7829
G1 X8.386 Y6.268 E33.80739
G1 X8.666 Y5.811 E33.87156
G1 X8.802 Y5.611 E33.90052
G1 X9.113 Y5.202 E33.96204
G1 X9.273 Y5.014 E33.9916
G1 X9.633 Y4.628 E34.0548
G1 X9.791 Y4.473 E34.0813
G1 X10.202 Y4.113 E34.14673
G1 X10.369 Y3.98 E34.17229
G1 X10.797 Y3.674 E34.23529
G1 X10.999 Y3.545 E34.26398
G1 X11.442 Y3.29 E34.32519
G1 X11.665 Y3.177 E34.35512
G1 X12.141 Y2.964 E34.41756
G1 X12.354 Y2.881 E34.44493
G1 X12.846 Y2.718 E34.50699
G1 X13.094 Y2.649 E34.53781
G1 X13.6 Y2.535 E34.59992
G1 X13.821 Y2.497 E34.62677
G1 X14.361 Y2.432 E34.69189
G1 X14.566 Y2.416 E34.71651
G1 X15.034 Y2.4 E34.77258
G1 X84.911 Y2.4 E43.13941
G1 X85.052 Y2.404 E43.1563
G1 X85.656 Y2.434 E43.22871
G1 X85.865 Y2.455 E43.25386
G1 X86.408 Y2.537 E43.31962
G1 X86.603 Y2.576 E43.34343
G1 X87.143 Y2.714 E43.41016
G1 X87.343 Y2.776 E43.43523
G1 X87.851 Y2.962 E43.50001
G1 X88.071 Y3.054 E43.52856
G1 X88.545 Y3.283 E43.59159
G1 X88.732 Y3.386 E43.61716
G1 X89.189 Y3.666 E43.68133
G1 X89.389 Y3.802 E43.71029
G1 X89.797 Y4.112 E43.77164
G1 X89.986 Y4.273 E43.80137
G1 X90.372 Y4.633 E43.86457
G1 X90.527 Y4.791 E43.89107
G1 X90.887 Y5.202 E43.95649
G1 X91.016 Y5.363 E43.98119
G1 X91.325 Y5.795 E44.04479
G0 F7200 X91.2 Y5.621
G1 F1200 X91.2 Y54.387 E49.88386
G0 F7200 X89.6 Y56.042
G1 F1200 X89.6 Y3.963 E56.11962
G0 F7200 X88 Y3.025
G1 F1200 X88 Y57.324 E62.62119
G0 F7200 X87.205 Y59.764
G0 X87.089 Y60.726
G0 X86.4 Y99.698
G1 F1200 X86.4 Y2.536 E74.25502
G0 F7200 X84.8 Y2.4
G1 F1200 X84.8 Y102.901 E86.28866
G0 F7200 X83.2 Y104.328
G1 F1200 X83.2 Y2.4 E98.49316
G0 F7200 X81.6 Y2.4
G1 F1200 X81.6 Y105.135 E110.79429
G0 F7200 X80 Y105.525
G1 F1200 X80 Y2.4 E123.14212
G0 F7200 X78.4 Y2.4
G1 F1200 X78.4 Y105.6 E135.49892
G0 F7200 X76.8 Y105.6
G1 F1200 X76.8 Y2.4 E147.85573
G0 F7200 X75.2 Y2.4
G1 F1200 X75.2 Y105.6 E160.21253
G0 F7200 X73.6 Y105.6
G1 F1200 X73.6 Y2.4 E172.56934
G0 F7200 X72 Y2.4
G1 F1200 X72 Y105.6 E184.92614
G0 F7200 X70.4 Y105.6
G1 F1200 X70.4 Y2.4 E197.28295
G0 F7200 X68.8 Y2.4
G1 F1200 X68.8 Y105.6 E209.63975
G0 F7200 X67.2 Y105.6
G1 F1200 X67.2 Y2.4 E221.99656
G0 F7200 X65.6 Y2.4
G1 F1200 X65.6 Y105.6 E234.35336
G0 F7200 X64 Y105.6
G1 F1200 X64 Y2.4 E246.71017
G0 F7200 X62.4 Y2.4
G1 F1200 X62.4 Y105.6 E259.06697
G0 F7200 X60.8 Y105.6
G1 F1200 X60.8 Y2.4 E271.42378
G0 F7200 X59.2 Y2.4
G1 F1200 X59.2 Y105.6 E283.78058
G0 F7200 X57.6 Y105.6
G1 F1200 X57.6 Y2.4 E296.13739
G0 F7200 X56 Y2.4
G1 F1200 X56 Y105.6 E308.4942
G0 F7200 X54.4 Y105.6
G1 F1200 X54.4 Y2.4 E320.851
G0 F7200 X52.8 Y2.4
G1 F1200 X52.8 Y105.6 E333.20781
G0 F7200 X51.2 Y105.6
G1 F1200 X51.2 Y2.4 E345.56461
G0 F7200 X49.6 Y2.4
G1 F1200 X49.6 Y105.6 E357.92142
G0 F7200 X48 Y105.6
G1 F1200 X48 Y2.4 E370.27822
G0 F7200 X46.4 Y2.4
G1 F1200 X46.4 Y105.6 E382.63503
G0 F7200 X44.8 Y105.6
G1 F1200 X44.8 Y2.4 E394.99183
G0 F7200 X43.2 Y2.4
G1 F1200 X43.2 Y105.6 E407.34864
G0 F7200 X41.6 Y105.6
G1 F1200 X41.6 Y2.4 E419.70544
G0 F7200 X40 Y2.4
G1 F1200 X40 Y105.6 E432.06225
G0 F7200 X38.4 Y105.6
G1 F1200 X38.4 Y2.4 E444.41905
G0 F7200 X36.8 Y2.4
G1 F1200 X36.8 Y105.6 E456.77586
G0 F7200 X35.2 Y105.6
G1 F1200 X35.2 Y2.4 E469.13267
G0 F7200 X33.6 Y2.4
G1 F1200 X33.6 Y105.6 E481.48947
G0 F7200 X32 Y105.6
G1 F1200 X32 Y2.4 E493.84628
G0 F7200 X30.4 Y2.4
G1 F1200 X30.4 Y105.6 E506.20308
G0 F7200 X28.8 Y105.6
G1 F1200 X28.8 Y2.4 E518.55989
G0 F7200 X27.2 Y2.4
G1 F1200 X27.2 Y105.6 E530.91669
G0 F7200 X25.6 Y105.6
G1 F1200 X25.6 Y2.4 E543.2735
G0 F7200 X24 Y2.4
G1 F1200 X24 Y105.6 E555.6303
G0 F7200 X22.4 Y105.6
G1 F1200 X22.4 Y2.4 E567.98711
G0 F7200 X20.8 Y2.4
G1 F1200 X20.8 Y105.6 E580.34391
G0 F7200 X19.2 Y105.6
G1 F1200 X19.2 Y2.4 E592.70072
G0 F7200 X17.6 Y2.4
G1 F1200 X17.6 Y105.6 E605.05752
G0 F7200 X16 Y105.6
G1 F1200 X16 Y2.4 E617.41433
G0 F7200 X14.4 Y2.428
G1 F1200 X14.4 Y105.6 E629.76778
G0 F7200 X12.8 Y105.6
G1 F1200 X12.8 Y2.733 E642.08472
G0 F7200 X11.2 Y3.429
G1 F1200 X11.2 Y105.6 E654.31831
G0 F7200 X9.6 Y105.6
G1 F1200 X9.6 Y4.663 E666.40415
G0 F7200 X8 Y7.058
G1 F1200 X8 Y105.524 E678.19413
G0 F7200 X6.4 Y105.129
G1 F1200 X6.4 Y50.182 E684.77329
G0 F7200 X4.8 Y51.672
G1 F1200 X4.8 Y104.326 E691.07789
G0 F7200 X3.2 Y102.897
M104 S200
G1 F1200 X3.2 Y53.099 E697.04053
G0 F7200 X1.6 Y56.303
G1 F1200 X1.6 Y99.688 E702.2353
G0 F600 X1.6 Y99.688 Z0.66
G0 F7200 X2.173 Y101.328
;TIME_ELAPSED:304.106601
;LAYER:-5
;TYPE:SUPPORT
G1 F1980 X2.288 Y101.551 E702.26033
G1 X2.542 Y101.997 E702.31155
G1 X2.672 Y102.198 E702.33543
G1 X2.983 Y102.636 E702.38903
G1 X3.113 Y102.797 E702.40968
G1 X3.472 Y103.208 E702.46413
G1 X3.627 Y103.366 E702.48622
G1 X4.014 Y103.726 E702.53895
G1 X4.202 Y103.886 E702.56359
G1 X4.611 Y104.197 E702.61486
G1 X4.807 Y104.331 E702.63855
G1 X5.265 Y104.61 E702.69206
G1 X5.453 Y104.714 E702.7135
G1 X5.929 Y104.945 E702.76629
G1 X5.965 Y104.96 E702.77018
G1 X2.044 Y101.039 E703.32347
G1 X1.96 Y100.85 E703.34411
G1 X1.88 Y100.645 E703.36607
G1 X1.718 Y100.153 E703.41775
G1 X1.648 Y99.905 E703.44347
G1 X1.534 Y99.399 E703.49522
G1 X1.496 Y99.178 E703.5176
G1 X1.482 Y99.063 E703.52916
G1 X7.932 Y105.513 E704.43932
G1 X8.134 Y105.544 E704.45971
G1 X8.343 Y105.565 E704.48067
G1 X8.947 Y105.595 E704.54101
G1 X9.089 Y105.599 E704.55519
G1 X9.432 Y105.599 E704.58941
G1 X1.4 Y97.566 E705.72288
G1 X1.4 Y96.152 E705.86397
G1 X10.847 Y105.599 E707.19705
G1 X12.261 Y105.599 E707.33814
G1 X1.4 Y94.738 E708.87074
G1 X1.4 Y93.323 E709.01193
G1 X13.675 Y105.599 E710.74414
G1 X15.089 Y105.599 E710.88523
G1 X1.4 Y91.909 E712.81696
G1 X1.4 Y90.496 E712.95795
G1 X16.503 Y105.599 E715.08915
G1 X17.918 Y105.599 E715.23034
G1 X1.4 Y89.082 E717.56114
G1 X1.4 Y87.667 E717.70232
G1 X19.332 Y105.599 E720.23272
G1 X20.746 Y105.599 E720.37381
G1 X1.4 Y86.253 E723.10374
G1 X1.4 Y84.839 E723.24483
G1 X22.16 Y105.599 E726.17429
G1 X23.574 Y105.599 E726.31538
G1 X1.401 Y83.425 E729.4443
G1 X1.401 Y82.011 E729.58539
G1 X24.989 Y105.599 E732.91391
G1 X26.403 Y105.599 E733.055
G1 X1.401 Y80.597 E736.58305
G1 X1.401 Y79.183 E736.72414
G1 X27.817 Y105.599 E740.45173
G1 X29.231 Y105.599 E740.59282
G1 X1.402 Y77.769 E744.51986
G1 X1.402 Y76.355 E744.66095
G1 X30.646 Y105.599 E748.78759
G1 X32.06 Y105.599 E748.92868
G1 X1.402 Y74.941 E753.25486
G1 X1.402 Y73.527 E753.39595
G1 X33.474 Y105.599 E757.92165
G1 X34.888 Y105.599 E758.06274
G1 X1.402 Y72.112 E762.78805
G1 X1.402 Y70.699 E762.92904
G1 X36.302 Y105.599 E767.85381
G1 X37.717 Y105.599 E767.995
G1 X1.402 Y69.285 E773.11936
G1 X1.402 Y67.87 E773.26055
G1 X39.131 Y105.599 E778.58452
G1 X40.545 Y105.599 E778.72561
G1 X1.402 Y66.456 E784.24911
G1 X1.402 Y65.042 E784.3902
G1 X41.959 Y105.599 E790.11323
G1 X43.373 Y105.599 E790.25432
G1 X1.403 Y63.629 E796.17674
G1 X1.403 Y62.214 E796.31793
G1 X44.788 Y105.599 E802.44002
G1 X46.202 Y105.599 E802.58111
G1 X1.403 Y60.8 E808.90274
G1 X1.403 Y59.386 E809.04383
G1 X47.616 Y105.599 E815.56498
G1 X49.03 Y105.599 E815.70607
G1 X1.403 Y57.972 E822.42675
G1 X1.404 Y57.947 E822.42925
G1 X1.434 Y57.34 E822.48989
G1 X1.455 Y57.135 E822.51045
G1 X1.523 Y56.678 E822.55655
G1 X50.444 Y105.599 E829.45984
G1 X51.859 Y105.599 E829.60102
G1 X1.813 Y55.553 E836.66306
G1 X1.962 Y55.147 E836.70621
G1 X2.054 Y54.928 E836.72991
G1 X2.232 Y54.558 E836.77088
G1 X53.273 Y105.599 E843.97332
G1 X54.687 Y105.599 E844.1144
G1 X2.759 Y53.671 E851.44201
G1 X2.802 Y53.61 E851.44945
G1 X3.111 Y53.202 E851.50052
G1 X3.272 Y53.013 E851.5253
G1 X3.389 Y52.887 E851.54245
G1 X56.101 Y105.599 E858.98068
G1 X57.516 Y105.599 E859.12187
G1 X4.109 Y52.192 E866.65818
G1 X4.201 Y52.112 E866.67034
G1 X4.36 Y51.986 E866.69059
G1 X4.813 Y51.662 E866.74616
G1 X4.923 Y51.592 E866.75917
G1 X58.93 Y105.599 E874.38014
G1 X60.344 Y105.599 E874.52123
G1 X5.709 Y50.964 E882.23082
G1 X5.959 Y50.726 E882.26526
G1 X6.374 Y50.215 E882.33094
G1 X61.758 Y105.599 E890.14622
G1 X63.172 Y105.599 E890.28731
G1 X6.89 Y49.317 E898.22931
G1 X7.037 Y48.997 E898.26445
G1 X7.243 Y48.346 E898.33258
G1 X7.257 Y48.269 E898.34039
G1 X64.587 Y105.599 E906.43027
G1 X66.001 Y105.599 E906.57136
G1 X7.399 Y46.997 E914.84074
G1 X7.399 Y45.583 E914.98183
G1 X67.415 Y105.599 E923.45073
G1 X68.829 Y105.599 E923.59182
G1 X7.399 Y44.169 E932.26026
G1 X7.399 Y42.755 E932.40135
G1 X70.243 Y105.599 E941.26931
G1 X71.658 Y105.599 E941.4105
G1 X7.399 Y41.34 E950.47814
G1 X7.4 Y39.927 E950.61913
G1 X73.072 Y105.599 E959.88616
G1 X74.486 Y105.599 E960.02725
G1 X7.4 Y38.513 E969.49381
G1 X7.4 Y37.099 E969.6349
G1 X75.9 Y105.599 E979.30099
G1 X77.315 Y105.599 E979.44218
G1 X7.4 Y35.684 E989.30794
G1 X7.401 Y34.271 E989.44893
G1 X78.729 Y105.599 E999.51408
G1 X78.965 Y105.599 E999.53763
G1 X79.434 Y105.583 E999.58445
G1 X79.639 Y105.567 E999.60497
G1 X80.06 Y105.516 E999.64729
G1 X7.401 Y32.857 E1009.90026
G1 X7.401 Y31.442 E1010.04144
G1 X81.218 Y105.259 E1020.45782
G1 X81.646 Y105.117 E1020.50282
G1 X81.858 Y105.035 E1020.5255
G1 X82.237 Y104.865 E1020.56694
G1 X7.401 Y30.028 E1031.12718
G1 X7.401 Y28.614 E1031.26827
G1 X83.147 Y104.36 E1041.95685
G1 X83.205 Y104.322 E1041.96377
G1 X83.636 Y104.015 E1042.01657
G1 X83.803 Y103.882 E1042.03787
G1 X83.951 Y103.75 E1042.05766
G1 X7.401 Y27.2 E1052.85969
G1 X7.401 Y25.786 E1053.00078
G1 X84.666 Y103.051 E1063.90371
G1 X84.726 Y102.985 E1063.91261
G1 X84.888 Y102.796 E1063.93744
G1 X85.198 Y102.388 E1063.98857
G1 X85.286 Y102.257 E1064.00432
G1 X7.401 Y24.372 E1074.99473
G1 X7.401 Y22.958 E1075.13582
G1 X85.805 Y101.361 E1086.1994
G1 X85.943 Y101.075 E1086.23109
G1 X86.039 Y100.847 E1086.25577
G1 X86.217 Y100.359 E1086.30761
G1 X7.402 Y21.544 E1097.42925
G1 X7.402 Y20.13 E1097.57034
G1 X86.491 Y99.219 E1108.73066
G1 X86.544 Y98.862 E1108.76667
G1 X86.566 Y98.654 E1108.78754
G1 X86.595 Y98.05 E1108.84787
G1 X86.596 Y97.91 E1108.86184
G1 X7.402 Y18.716 E1120.03697
G1 X7.402 Y17.302 E1120.17806
G1 X86.596 Y96.496 E1131.35319
G1 X86.596 Y95.081 E1131.49438
G1 X7.403 Y15.888 E1142.66937
G1 X7.403 Y14.474 E1142.81046
G1 X86.596 Y93.667 E1153.98545
G1 X86.596 Y92.253 E1154.12653
G1 X7.403 Y13.06 E1165.30152
G1 X7.403 Y11.646 E1165.44261
G1 X86.596 Y90.839 E1176.6176
G1 X86.597 Y89.425 E1176.75869
G1 X7.403 Y10.231 E1187.93382
G1 X7.404 Y9.946 E1187.96226
G1 X7.433 Y9.34 E1188.02279
G1 X7.455 Y9.135 E1188.04336
G1 X7.489 Y8.903 E1188.06676
G1 X86.597 Y88.011 E1199.22975
G1 X86.597 Y86.597 E1199.37084
G1 X7.747 Y7.747 E1210.49743
G1 X7.775 Y7.656 E1210.50693
G1 X7.961 Y7.149 E1210.56082
G1 X8.053 Y6.928 E1210.5847
G1 X8.147 Y6.733 E1210.6063
G1 X86.597 Y85.183 E1221.67644
G1 X86.597 Y83.768 E1221.81763
G1 X8.654 Y5.826 E1232.81616
G1 X8.664 Y5.811 E1232.81796
G1 X8.801 Y5.61 E1232.84223
G1 X9.112 Y5.202 E1232.89342
